24x24/actions/paint-order-sfm.svg

<svg xmlns="http://www.w3.org/2000/svg" width="24" height="24"><defs><style id="current-color-scheme" type="text/css">.ColorScheme-Text{color:#323a41}</style></defs><path style="opacity:.3;fill:currentColor" class="ColorScheme-Text" d="M10 10h13v13H10zm7 0a7 7 0 0 1-7 7 7 7 0 0 1-7-7 7 7 0 0 1 7-7 7 7 0 0 1 7 7z"/><path style="fill:currentColor" class="ColorScheme-Text" d="M10 1a9 9 0 0 0-9 9 9 9 0 0 0 9 9 9 9 0 0 0 9-9 9 9 0 0 0-9-9zm0 3a6 6 0 0 1 6 6 6 6 0 0 1-6 6 6 6 0 0 1-6-6 6 6 0 0 1 6-6z"/><path style="fill:currentColor" class="ColorScheme-Text" d="M18 8v2h5V8zM8 18v5h2v-5z"/></svg>

<svg xmlns="http://www.w3.org/2000/svg" width="24" height="24" version="1.1">
 <defs>
  <style id="current-color-scheme" type="text/css">
   .ColorScheme-Text { color:#323a41; } .ColorScheme-Highlight { color:#4285f4; } .ColorScheme-NeutralText { color:#ff9800; } .ColorScheme-PositiveText { color:#4caf50; } .ColorScheme-NegativeText { color:#f44336; }
  </style>
 </defs>
 <path style="opacity:0.3;fill:currentColor" class="ColorScheme-Text" d="M 10,10 H 23 V 23 H 10 Z M 17,10 A 7,7 0 0 1 10,17 7,7 0 0 1 3,10 7,7 0 0 1 10,3 7,7 0 0 1 17,10 Z"/>
 <path style="fill:currentColor" class="ColorScheme-Text" d="M 10,1 A 9,9 0 0 0 1,10 9,9 0 0 0 10,19 9,9 0 0 0 19,10 9,9 0 0 0 10,1 Z M 10,4 A 6,6 0 0 1 16,10 6,6 0 0 1 10,16 6,6 0 0 1 4,10 6,6 0 0 1 10,4 Z"/>
 <path style="fill:currentColor" class="ColorScheme-Text" d="M 18,8 V 10 H 23 V 8 Z M 8,18 V 23 H 10 V 18 Z"/>
</svg>
